static/img/kroki/a346fe849e91a6c8aa27e7c1a2a904da.svg

<?xml version="1.0" encoding="us-ascii" standalone="no"?><svg xmlns="http://www.w3.org/2000/svg" xmlns:xlink="http://www.w3.org/1999/xlink" contentStyleType="text/css" height="374px" preserveAspectRatio="none" style="width:314px;height:374px;" version="1.1" viewBox="0 0 314 374" width="314px" zoomAndPan="magnify"><defs/><g><!--class kubernetes_controller_revision--><g id="elem_kubernetes_controller_revision"><rect codeLine="23" fill="#3D176E" height="39.7891" id="kubernetes_controller_revision" rx="2.5" ry="2.5" style="stroke:#000D19;stroke-width:0.5;" width="300" x="7" y="328.58"/><ellipse cx="22" cy="348.4745" fill="#ADD1B2" rx="11" ry="11" style="stroke:#181818;stroke-width:1.0;"/><path d="M24.9688,354.1152 Q24.3906,354.412 23.75,354.5527 Q23.1094,354.7089 22.4063,354.7089 Q19.9063,354.7089 18.5781,353.0683 Q17.2656,351.412 17.2656,348.287 Q17.2656,345.162 18.5781,343.5058 Q19.9063,341.8495 22.4063,341.8495 Q23.1094,341.8495 23.75,342.0058 Q24.4063,342.162 24.9688,342.4589 L24.9688,345.1777 Q24.3438,344.5995 23.75,344.3339 Q23.1563,344.0527 22.5313,344.0527 Q21.1875,344.0527 20.5,345.1308 Q19.8125,346.1933 19.8125,348.287 Q19.8125,350.3808 20.5,351.4589 Q21.1875,352.5214 22.5313,352.5214 Q23.1563,352.5214 23.75,352.2558 Q24.3438,351.9745 24.9688,351.3964 L24.9688,354.1152 Z " fill="#000000"/><text fill="#D9B8FF" font-family="Helvetica" font-size="17" lengthAdjust="spacing" textLength="258" x="41" y="354.3598">kubernetes_controller_revision</text></g><!--class kubernetes_resource--><g id="elem_kubernetes_resource"><rect codeLine="26" fill="#3D176E" height="39.7891" id="kubernetes_resource" rx="2.5" ry="2.5" style="stroke:#000D19;stroke-width:0.5;" width="216" x="49" y="167.79"/><ellipse cx="64" cy="187.6845" fill="#ADD1B2" rx="11" ry="11" style="stroke:#181818;stroke-width:1.0;"/><path d="M66.9688,193.3252 Q66.3906,193.622 65.75,193.7627 Q65.1094,193.9189 64.4063,193.9189 Q61.9063,193.9189 60.5781,192.2783 Q59.2656,190.622 59.2656,187.497 Q59.2656,184.372 60.5781,182.7158 Q61.9063,181.0595 64.4063,181.0595 Q65.1094,181.0595 65.75,181.2158 Q66.4063,181.372 66.9688,181.6689 L66.9688,184.3877 Q66.3438,183.8095 65.75,183.5439 Q65.1563,183.2627 64.5313,183.2627 Q63.1875,183.2627 62.5,184.3408 Q61.8125,185.4033 61.8125,187.497 Q61.8125,189.5908 62.5,190.6689 Q63.1875,191.7314 64.5313,191.7314 Q65.1563,191.7314 65.75,191.4658 Q66.3438,191.1845 66.9688,190.6064 L66.9688,193.3252 Z " fill="#000000"/><text fill="#D9B8FF" font-family="Helvetica" font-size="17" lengthAdjust="spacing" textLength="174" x="83" y="193.5698">kubernetes_resource</text></g><!--class resource--><g id="elem_resource"><rect codeLine="29" fill="#3D176E" height="39.7891" id="resource" rx="2.5" ry="2.5" style="stroke:#000D19;stroke-width:0.5;" width="113" x="100.5" y="7"/><ellipse cx="115.5" cy="26.8945" fill="#ADD1B2" rx="11" ry="11" style="stroke:#181818;stroke-width:1.0;"/><path d="M118.4688,32.5352 Q117.8906,32.832 117.25,32.9727 Q116.6094,33.1289 115.9063,33.1289 Q113.4063,33.1289 112.0781,31.4883 Q110.7656,29.832 110.7656,26.707 Q110.7656,23.582 112.0781,21.9258 Q113.4063,20.2695 115.9063,20.2695 Q116.6094,20.2695 117.25,20.4258 Q117.9063,20.582 118.4688,20.8789 L118.4688,23.5977 Q117.8438,23.0195 117.25,22.7539 Q116.6563,22.4727 116.0313,22.4727 Q114.6875,22.4727 114,23.5508 Q113.3125,24.6133 113.3125,26.707 Q113.3125,28.8008 114,29.8789 Q114.6875,30.9414 116.0313,30.9414 Q116.6563,30.9414 117.25,30.6758 Q117.8438,30.3945 118.4688,29.8164 L118.4688,32.5352 Z " fill="#000000"/><text fill="#D9B8FF" font-family="Helvetica" font-size="17" lengthAdjust="spacing" textLength="71" x="134.5" y="32.7798">resource</text></g><!--reverse link kubernetes_resource to kubernetes_controller_revision--><g id="link_kubernetes_resource_kubernetes_controller_revision"><path codeLine="32" d="M157,225.84 C157,256.36 157,297.69 157,328.25 " fill="none" id="kubernetes_resource-backto-kubernetes_controller_revision" style="stroke:#FFAF37;stroke-width:2.0;"/><polygon fill="none" points="157,207.84,151,225.84,163,225.84,157,207.84" style="stroke:#FFAF37;stroke-width:2.0;"/></g><!--reverse link resource to kubernetes_resource--><g id="link_resource_kubernetes_resource"><path codeLine="33" d="M157,65.05 C157,95.57 157,136.9 157,167.46 " fill="none" id="resource-backto-kubernetes_resource" style="stroke:#FFAF37;stroke-width:2.0;"/><polygon fill="none" points="157,47.05,151,65.05,163,65.05,157,47.05" style="stroke:#FFAF37;stroke-width:2.0;"/></g><!--SRC=[XPBDRi8m48JlVWfBd958KGj8lG1IrLvGLNf7ZZqcLX8RhHqG_NdtXb8gan2uxdpQcLbjPXGuoatOyn9b2lBCvyPk18cIJudSRkuAHxodjT33KLDySZRS11QY17z6iKKmKZI9zyp8tC9xVXT9Co7pDRdAgkFwGCBwMe8D4JKlXFVJ4CYaLK0KHatIiTPDihcqDrJ9w04jp942_I63mK0baoPoq-fgxtzYQJx0a_Xe2nVGYjco-AMkfZmGKSXMqPFUcV5LA6Nicjz7ixTZ9hAWi_ao4yhj3hGMXOzjV031XVq6yrOhJCPAZox2BrqmauVJyRogFzKYmAzaNO9SKO1MXAtnnbd-oTXtcoHuLv54B9_FBi6FN_r-_uOXwwPF2li1]--></g></svg>

<svg xmlns="http://www.w3.org/2000/svg" width="314" height="374" viewBox="0 0 314 374"><rect width="300" height="39.789" x="7" y="328.58" fill="#3D176E" rx="2.5" ry="2.5" style="stroke:#000d19;stroke-width:.5"/><circle cx="22" cy="348.474" r="11" fill="#ADD1B2" style="stroke:#181818;stroke-width:1"/><path d="M24.969 354.115q-.578.297-1.219.438-.64.156-1.344.156-2.5 0-3.828-1.64-1.312-1.657-1.312-4.782t1.312-4.781q1.328-1.656 3.828-1.656.703 0 1.344.156.656.156 1.219.453v2.719q-.625-.579-1.219-.844-.594-.281-1.219-.281-1.343 0-2.031 1.078-.687 1.062-.687 3.156t.687 3.172q.688 1.062 2.031 1.062.625 0 1.219-.265.594-.281 1.219-.86z"/><text x="41" y="354.36" fill="#D9B8FF" font-family="Helvetica" font-size="17" textLength="258">kubernetes_controller_revision</text><rect width="216" height="39.789" x="49" y="167.79" fill="#3D176E" rx="2.5" ry="2.5" style="stroke:#000d19;stroke-width:.5"/><circle cx="64" cy="187.685" r="11" fill="#ADD1B2" style="stroke:#181818;stroke-width:1"/><path d="M66.969 193.325q-.578.297-1.219.438-.64.156-1.344.156-2.5 0-3.828-1.64-1.312-1.657-1.312-4.782t1.312-4.781q1.328-1.656 3.828-1.656.703 0 1.344.156.656.156 1.219.453v2.719q-.625-.578-1.219-.844-.594-.281-1.219-.281-1.344 0-2.031 1.078-.687 1.062-.687 3.156t.687 3.172q.688 1.062 2.031 1.062.625 0 1.219-.265.594-.281 1.219-.86z"/><text x="83" y="193.57" fill="#D9B8FF" font-family="Helvetica" font-size="17" textLength="174">kubernetes_resource</text><rect width="113" height="39.789" x="100.5" y="7" fill="#3D176E" rx="2.5" ry="2.5" style="stroke:#000d19;stroke-width:.5"/><circle cx="115.5" cy="26.895" r="11" fill="#ADD1B2" style="stroke:#181818;stroke-width:1"/><path d="M118.469 32.535q-.578.297-1.219.438-.64.156-1.344.156-2.5 0-3.828-1.64-1.312-1.657-1.312-4.782t1.312-4.781q1.328-1.656 3.828-1.656.703 0 1.344.156.656.156 1.219.453v2.719q-.625-.578-1.219-.844-.594-.281-1.219-.281-1.344 0-2.031 1.078-.687 1.062-.687 3.156t.687 3.172q.688 1.062 2.031 1.062.625 0 1.219-.265.594-.281 1.219-.86z"/><text x="134.5" y="32.78" fill="#D9B8FF" font-family="Helvetica" font-size="17" textLength="71">resource</text><path fill="none" d="M157 225.84v102.41m0-120.41-6 18h12zm0-142.79v102.41m0-120.41-6 18h12z" style="stroke:#ffaf37;stroke-width:2"/></svg>
